status/22/image-missing.svg

<?xml version="1.0" encoding="UTF-8" standalone="no"?>
<!-- Created with Inkscape (http://www.inkscape.org/) -->

<svg
   xmlns:svg="http://www.w3.org/2000/svg"
   xmlns="http://www.w3.org/2000/svg"
   xmlns:xlink="http://www.w3.org/1999/xlink"
   version="1.0"
   width="22"
   height="22"
   id="svg2">
  <defs
     id="defs4">
    <linearGradient
       id="linearGradient3610-302">
      <stop
         id="stop3796"
         style="stop-color:#333;stop-opacity:1"
         offset="0" />
      <stop
         id="stop3798"
         style="stop-color:#292929;stop-opacity:1"
         offset="1" />
    </linearGradient>
    <linearGradient
       x1="-24.032034"
       y1="-13.090545"
       x2="-24.097931"
       y2="-40.163883"
       id="linearGradient2412"
       xlink:href="#linearGradient3610-302"
       gradientUnits="userSpaceOnUse"
       gradientTransform="matrix(0.4857142,0,0,0.4814814,0.6620573,2.0024712)" />
    <linearGradient
       id="linearGradient4157-401-351">
      <stop
         id="stop3790"
         style="stop-color:#262626;stop-opacity:1"
         offset="0" />
      <stop
         id="stop3792"
         style="stop-color:#828282;stop-opacity:1"
         offset="1" />
    </linearGradient>
    <linearGradient
       x1="28.938274"
       y1="17.33289"
       x2="105.36545"
       y2="92.823723"
       id="linearGradient2410"
       xlink:href="#linearGradient4157-401-351"
       gradientUnits="userSpaceOnUse"
       gradientTransform="matrix(0.2139556,0,0,0.1648118,-25.539123,-20.465313)" />
    <linearGradient
       id="linearGradient259-942">
      <stop
         id="stop3802"
         style="stop-color:white;stop-opacity:1"
         offset="0" />
      <stop
         id="stop3804"
         style="stop-color:#e0e0e0;stop-opacity:1"
         offset="1" />
    </linearGradient>
    <linearGradient
       x1="108.26451"
       y1="110.28094"
       x2="25.817675"
       y2="14.029031"
       id="linearGradient2415"
       xlink:href="#linearGradient259-942"
       gradientUnits="userSpaceOnUse"
       gradientTransform="matrix(0.2364302,0,0,0.1658673,-27.025877,-21.665256)" />
    <linearGradient
       id="linearGradient2490-794">
      <stop
         id="stop2699"
         style="stop-color:#8f153e;stop-opacity:1"
         offset="0" />
      <stop
         id="stop2701"
         style="stop-color:#e04e3d;stop-opacity:1"
         offset="1" />
    </linearGradient>
    <linearGradient
       x1="18.379412"
       y1="44.980297"
       x2="18.379412"
       y2="3.0816143"
       id="linearGradient2500"
       xlink:href="#linearGradient2490-794"
       gradientUnits="userSpaceOnUse"
       gradientTransform="matrix(0.270267,0,0,0.270267,4.513592,4.5135922)" />
    <linearGradient
       id="linearGradient3242-485">
      <stop
         id="stop2689"
         style="stop-color:#f9bf96;stop-opacity:1"
         offset="0" />
      <stop
         id="stop2691"
         style="stop-color:#e67164;stop-opacity:1"
         offset="0.26238" />
      <stop
         id="stop2693"
         style="stop-color:#d62e36;stop-opacity:1"
         offset="0.66093999" />
      <stop
         id="stop2695"
         style="stop-color:#800d66;stop-opacity:1"
         offset="1" />
    </linearGradient>
    <radialGradient
       cx="23.895569"
       cy="3.9900031"
       r="20.397499"
       fx="23.895569"
       fy="3.9900031"
       id="radialGradient2498"
       xlink:href="#linearGradient3242-485"
       gradientUnits="userSpaceOnUse"
       gradientTransform="matrix(0,0.6450347,-0.8514343,0,14.397226,-10.32675)" />
  </defs>
  <g
     id="layer1">
    <g
       id="g2537">
      <rect
         width="20.983931"
         height="16.963207"
         x="-21.481524"
         y="-19.500881"
         transform="matrix(-0.9999985,0.0017538,-9.492257e-4,-0.9999995,0,0)"
         id="rect3580"
         style="fill:url(#linearGradient2415);fill-opacity:1;stroke:#b3b3b3;stroke-width:0.99999988;stroke-linecap:round;stroke-linejoin:miter;stroke-miterlimit:4;stroke-opacity:0.96862745;stroke-dasharray:none" />
      <rect
         width="16.968353"
         height="12.936693"
         rx="0"
         ry="0"
         x="-19.511364"
         y="-17.509548"
         transform="matrix(-0.999993,0.00373314,0.00245538,-0.999997,0,0)"
         id="rect3582"
         style="fill:url(#linearGradient2410);fill-opacity:1;stroke:url(#linearGradient2412);stroke-width:1.0000093;stroke-linecap:round;stroke-linejoin:miter;stroke-miterlimit:4;stroke-opacity:1;stroke-dasharray:none" />
    </g>
    <path
       d="M 11.000001,5.501756 C 7.96626,5.501756 5.501755,7.9662584 5.501755,11 c 0,3.033742 2.464505,5.498246 5.498246,5.498244 3.03374,0 5.498246,-2.464502 5.498244,-5.498244 0,-3.0337416 -2.464504,-5.498244 -5.498244,-5.498244 z m 0,1.7651813 c 2.062535,0 3.733063,1.6705281 3.733063,3.7330627 0,0.865629 -0.299927,1.655806 -0.793911,2.288824 L 9.209483,7.7230126 C 9.740874,7.432257 10.351259,7.2669373 11.000001,7.2669373 z m -2.989829,1.5033599 4.712781,5.5404738 c -0.515448,0.26854 -1.101258,0.422293 -1.722952,0.422293 -2.062535,0 -3.733063,-1.670529 -3.733063,-3.733064 0,-0.837904 0.277551,-1.6069121 0.743234,-2.2297028 z"
       id="path2555"
       style="fill:url(#radialGradient2498);fill-opacity:1;stroke:url(#linearGradient2500);stroke-width:1.00365424;stroke-linecap:round;stroke-linejoin:round;stroke-miterlimit:4;stroke-opacity:1;stroke-dasharray:none;stroke-dashoffset:0" />
  </g>
</svg>

<?xml version="1.0" encoding="UTF-8" standalone="no"?>
<!-- Created with Inkscape (http://www.inkscape.org/) -->
<svg
   xmlns:svg="http://www.w3.org/2000/svg"
   xmlns="http://www.w3.org/2000/svg"
   xmlns:xlink="http://www.w3.org/1999/xlink"
   version="1.0"
   width="22"
   height="22"
   id="svg2">
  <defs
     id="defs4">
    <linearGradient
       id="linearGradient3610-302">
      <stop
         id="stop3796"
         style="stop-color:#333333;stop-opacity:1"
         offset="0" />
      <stop
         id="stop3798"
         style="stop-color:#292929;stop-opacity:1"
         offset="1" />
    </linearGradient>
    <linearGradient
       x1="-24.032034"
       y1="-13.090545"
       x2="-24.097931"
       y2="-40.163883"
       id="linearGradient2412"
       xlink:href="#linearGradient3610-302"
       gradientUnits="userSpaceOnUse"
       gradientTransform="matrix(0.4857142,0,0,0.4814814,0.6620573,2.0024712)" />
    <linearGradient
       id="linearGradient4157-401-351">
      <stop
         id="stop3790"
         style="stop-color:#262626;stop-opacity:1"
         offset="0" />
      <stop
         id="stop3792"
         style="stop-color:#828282;stop-opacity:1"
         offset="1" />
    </linearGradient>
    <linearGradient
       x1="28.938274"
       y1="17.33289"
       x2="105.36545"
       y2="92.823723"
       id="linearGradient2410"
       xlink:href="#linearGradient4157-401-351"
       gradientUnits="userSpaceOnUse"
       gradientTransform="matrix(0.2139556,0,0,0.1648118,-25.539123,-20.465313)" />
    <linearGradient
       id="linearGradient259-942">
      <stop
         id="stop3802"
         style="stop-color:#ffffff;stop-opacity:1"
         offset="0" />
      <stop
         id="stop3804"
         style="stop-color:#e0e0e0;stop-opacity:1"
         offset="1" />
    </linearGradient>
    <linearGradient
       x1="108.26451"
       y1="110.28094"
       x2="25.817675"
       y2="14.029031"
       id="linearGradient2415"
       xlink:href="#linearGradient259-942"
       gradientUnits="userSpaceOnUse"
       gradientTransform="matrix(0.2364302,0,0,0.1658673,-27.025877,-21.665256)" />
    <linearGradient
       id="linearGradient2490-794">
      <stop
         id="stop2699"
         style="stop-color:#8f153e;stop-opacity:1"
         offset="0" />
      <stop
         id="stop2701"
         style="stop-color:#e04e3d;stop-opacity:1"
         offset="1" />
    </linearGradient>
    <linearGradient
       x1="18.379412"
       y1="44.980297"
       x2="18.379412"
       y2="3.0816143"
       id="linearGradient2500"
       xlink:href="#linearGradient2490-794"
       gradientUnits="userSpaceOnUse"
       gradientTransform="matrix(0.270267,0,0,0.270267,4.513592,4.5135922)" />
    <linearGradient
       id="linearGradient3242-485">
      <stop
         id="stop2689"
         style="stop-color:#f9bf96;stop-opacity:1"
         offset="0" />
      <stop
         id="stop2691"
         style="stop-color:#e67164;stop-opacity:1"
         offset="0.26238" />
      <stop
         id="stop2693"
         style="stop-color:#d62e36;stop-opacity:1"
         offset="0.66093999" />
      <stop
         id="stop2695"
         style="stop-color:#800d66;stop-opacity:1"
         offset="1" />
    </linearGradient>
    <radialGradient
       cx="23.895569"
       cy="3.9900031"
       r="20.397499"
       fx="23.895569"
       fy="3.9900031"
       id="radialGradient2498"
       xlink:href="#linearGradient3242-485"
       gradientUnits="userSpaceOnUse"
       gradientTransform="matrix(0,0.6450347,-0.8514343,0,14.397226,-10.32675)" />
  </defs>
  <g
     id="layer1">
    <g
       id="g2537">
      <rect
         width="20.983931"
         height="16.963207"
         x="-21.481524"
         y="-19.500881"
         transform="matrix(-0.9999985,1.7538034e-3,-9.492257e-4,-0.9999995,0,0)"
         id="rect3580"
         style="fill:url(#linearGradient2415);fill-opacity:1;stroke:#b3b3b3;stroke-width:0.99999988;stroke-linecap:round;stroke-linejoin:miter;stroke-miterlimit:4;stroke-dasharray:none;stroke-opacity:0.96862745" />
      <rect
         width="16.968353"
         height="12.936693"
         rx="0"
         ry="0"
         x="-19.511364"
         y="-17.509548"
         transform="matrix(-0.999993,3.73314e-3,2.4553792e-3,-0.999997,0,0)"
         id="rect3582"
         style="fill:url(#linearGradient2410);fill-opacity:1;stroke:url(#linearGradient2412);stroke-width:1.0000093;stroke-linecap:round;stroke-linejoin:miter;stroke-miterlimit:4;stroke-dasharray:none;stroke-opacity:1" />
    </g>
    <path
       d="M 11.000001,5.501756 C 7.96626,5.501756 5.501755,7.9662584 5.501755,11 C 5.501755,14.033742 7.96626,16.498246 11.000001,16.498244 C 14.033741,16.498244 16.498247,14.033742 16.498245,11 C 16.498245,7.9662584 14.033741,5.501756 11.000001,5.501756 z M 11.000001,7.2669373 C 13.062536,7.2669373 14.733064,8.9374654 14.733064,11 C 14.733064,11.865629 14.433137,12.655806 13.939153,13.288824 L 9.209483,7.7230126 C 9.740874,7.432257 10.351259,7.2669373 11.000001,7.2669373 z M 8.010172,8.7702972 L 12.722953,14.310771 C 12.207505,14.579311 11.621695,14.733064 11.000001,14.733064 C 8.937466,14.733064 7.266938,13.062535 7.266938,11 C 7.266938,10.162096 7.544489,9.3930879 8.010172,8.7702972 z"
       id="path2555"
       style="fill:url(#radialGradient2498);fill-opacity:1;stroke:url(#linearGradient2500);stroke-width:1.00365424;stroke-linecap:round;stroke-linejoin:round;stroke-miterlimit:4;stroke-dasharray:none;stroke-dashoffset:0;stroke-opacity:1" />
  </g>
</svg>
